resources/svg/logos/behance.svg

<svg xmlns="http://www.w3.org/2000/svg" fill="currentColor" stroke="none" viewBox="0 0 24 24"><path d="M7.803 5.731c.589 0 1.119.051 1.605.155.483.103.895.273 1.243.508.343.235.611.547.804.939.187.387.28.871.28 1.443 0 .62-.14 1.138-.421 1.551-.283.414-.7.753-1.256 1.015.757.219 1.318.602 1.69 1.146.374.549.557 1.206.557 1.976 0 .625-.119 1.162-.358 1.613a3.11 3.11 0 0 1-.974 1.114 4.315 4.315 0 0 1-1.399.64 6.287 6.287 0 0 1-1.609.206H2V5.731h5.803zm-.351 4.972c.48 0 .878-.114 1.192-.345.312-.228.463-.604.463-1.119 0-.286-.051-.522-.151-.707a1.114 1.114 0 0 0-.417-.428 1.683 1.683 0 0 0-.597-.215 3.609 3.609 0 0 0-.697-.061H4.71v2.875h2.742zm.151 5.239c.267 0 .521-.023.76-.077.241-.052.455-.136.637-.261.182-.12.332-.283.44-.491.109-.206.162-.475.162-.798 0-.634-.179-1.085-.533-1.358-.355-.27-.831-.404-1.414-.404H4.71v3.39h2.893zm8.565-.041c.367.358.896.538 1.584.538.493 0 .919-.125 1.278-.373.354-.249.57-.515.653-.79h2.155c-.346 1.072-.871 1.838-1.589 2.299-.709.463-1.572.693-2.58.693-.702 0-1.334-.113-1.9-.337a4.033 4.033 0 0 1-1.439-.958 4.37 4.37 0 0 1-.905-1.485 5.433 5.433 0 0 1-.32-1.899c0-.666.111-1.289.329-1.864a4.376 4.376 0 0 1 .934-1.493c.405-.42.885-.751 1.444-.994a4.634 4.634 0 0 1 1.858-.362c.754 0 1.413.146 1.979.44a3.967 3.967 0 0 1 1.39 1.182c.363.493.622 1.058.783 1.691.161.632.217 1.292.171 1.983h-6.431c.001.704.238 1.371.606 1.729zm2.812-4.681c-.291-.322-.783-.496-1.385-.496-.391 0-.714.065-.974.199a1.97 1.97 0 0 0-.62.491 1.772 1.772 0 0 0-.328.628 2.82 2.82 0 0 0-.111.587h3.982c-.058-.624-.272-1.085-.564-1.409zm-3.918-4.663h4.989v1.215h-4.989z"/></svg>

<svg xmlns="http://www.w3.org/2000/svg" fill="currentColor" stroke="none" viewBox="0 0 24 24"><path d="M7.803 5.731c.589 0 1.119.051 1.605.155.483.103.895.273 1.243.508.343.235.611.547.804.939.187.387.28.871.28 1.443 0 .62-.14 1.138-.421 1.551-.283.414-.7.753-1.256 1.015.757.219 1.318.602 1.69 1.146.374.549.557 1.206.557 1.976 0 .625-.119 1.162-.358 1.613-.24.458-.569.829-.974 1.114-.408.289-.876.501-1.399.64-.519.137-1.057.206-1.609.206H2V5.731H7.803zM7.452 10.703c.48 0 .878-.114 1.192-.345.312-.228.463-.604.463-1.119 0-.286-.051-.522-.151-.707C8.853 8.349 8.714 8.205 8.539 8.104 8.365 7.999 8.17 7.928 7.942 7.889 7.719 7.845 7.485 7.828 7.245 7.828H4.71v2.875H7.452zM7.603 15.942c.267 0 .521-.023.76-.077C8.604 15.813 8.818 15.729 9 15.604c.182-.12.332-.283.44-.491.109-.206.162-.475.162-.798 0-.634-.179-1.085-.533-1.358-.355-.27-.831-.404-1.414-.404H4.71v3.39H7.603zM16.168 15.901c.367.358.896.538 1.584.538.493 0 .919-.125 1.278-.373.354-.249.57-.515.653-.79h2.155c-.346 1.072-.871 1.838-1.589 2.299-.709.463-1.572.693-2.58.693-.702 0-1.334-.113-1.9-.337-.567-.227-1.042-.544-1.439-.958-.389-.416-.69-.907-.905-1.485-.213-.574-.32-1.21-.32-1.899 0-.666.111-1.289.329-1.864.223-.577.529-1.075.934-1.493.405-.42.885-.751 1.444-.994.559-.241 1.175-.362 1.858-.362.754 0 1.413.146 1.979.44.563.292 1.026.687 1.39 1.182.363.493.622 1.058.783 1.691.161.632.217 1.292.171 1.983h-6.431C15.563 14.876 15.8 15.543 16.168 15.901zM18.98 11.22c-.291-.322-.783-.496-1.385-.496-.391 0-.714.065-.974.199-.254.133-.461.297-.62.491-.157.197-.265.405-.328.628-.062.217-.1.413-.111.587h3.982C19.486 12.005 19.272 11.544 18.98 11.22zM15.062 6.557H20.051V7.772H15.062z"/></svg>
